flaticon/symbols/wisdom-1.svg

<svg xmlns="http://www.w3.org/2000/svg" width="32" height="32" viewBox="0 0 24 24">
    <path d="M 20.277344 9.308594 C 20.277344 6.578125 18.496094 4.070312 15.722656 2.851562 L 15.722656 0 L 13.242188 0 L 13.242188 2.484375 L 10.757812 2.484375 L 10.757812 0 L 8.277344 0 L 8.277344 2.851562 C 5.503906 4.070312 3.722656 6.578125 3.722656 9.308594 C 3.722656 10.316406 3.960938 11.285156 4.417969 12.207031 C 3.96875 13.105469 3.722656 14.089844 3.722656 15.101562 C 3.722656 17.359375 4.957031 19.632812 6.9375 21.03125 C 7.34375 21.316406 7.792969 21.535156 8.277344 21.6875 L 8.277344 24 L 10.757812 24 L 10.757812 21.929688 L 13.242188 21.929688 L 13.242188 24 L 15.722656 24 L 15.722656 21.671875 C 16.292969 21.492188 16.824219 21.21875 17.292969 20.859375 C 19.160156 19.4375 20.277344 17.285156 20.277344 15.101562 C 20.277344 14.105469 20.039062 13.136719 19.574219 12.214844 C 20.039062 11.292969 20.277344 10.316406 20.277344 9.308594 Z M 17.792969 15.101562 C 17.792969 16.507812 17.039062 17.738281 15.722656 18.574219 L 15.722656 15.789062 C 16.511719 15.472656 17.183594 14.992188 17.742188 14.488281 C 17.773438 14.691406 17.792969 14.898438 17.792969 15.101562 Z M 19.449219 9.308594 C 19.449219 10.191406 19.234375 11.046875 18.824219 11.855469 L 18.804688 11.863281 L 18.734375 11.992188 C 18.617188 12.203125 18.488281 12.40625 18.347656 12.601562 C 18.152344 12.863281 17.90625 13.167969 17.605469 13.480469 L 17.496094 13.589844 C 16.898438 14.1875 16.117188 14.789062 15.175781 15.109375 L 14.898438 15.207031 L 14.898438 19.015625 C 14.890625 19.019531 14.882812 19.019531 14.875 19.023438 C 14.695312 19.105469 14.511719 19.175781 14.328125 19.238281 C 14.246094 19.269531 14.15625 19.292969 14.070312 19.316406 L 14.070312 14.613281 C 15.382812 14.25 16.53125 13.535156 17.363281 12.570312 L 17.386719 12.5625 L 17.460938 12.46875 C 17.867188 11.96875 18.175781 11.410156 18.375 10.804688 L 18.375 10.808594 C 18.386719 10.78125 18.390625 10.753906 18.398438 10.726562 L 18.453125 10.566406 L 18.449219 10.558594 C 18.558594 10.148438 18.621094 9.730469 18.621094 9.308594 C 18.621094 7.449219 17.542969 5.742188 15.722656 4.699219 L 15.722656 3.757812 C 18.003906 4.894531 19.449219 7.015625 19.449219 9.308594 Z M 9.671875 19.238281 C 9.488281 19.175781 9.304688 19.105469 9.125 19.023438 C 9.117188 19.019531 9.109375 19.019531 9.101562 19.015625 L 9.101562 15.222656 L 8.84375 15.117188 C 7.949219 14.757812 7.164062 14.257812 6.5 13.628906 C 6.539062 13.523438 6.585938 13.421875 6.636719 13.320312 C 6.660156 13.277344 6.679688 13.234375 6.699219 13.195312 C 6.761719 13.082031 6.824219 12.972656 6.898438 12.863281 C 7.691406 13.675781 8.746094 14.285156 9.929688 14.613281 L 9.929688 19.316406 C 9.84375 19.292969 9.753906 19.269531 9.671875 19.238281 Z M 6.257812 14.519531 C 6.855469 15.027344 7.53125 15.449219 8.277344 15.777344 L 8.277344 18.574219 C 6.960938 17.738281 6.207031 16.507812 6.207031 15.101562 C 6.207031 14.90625 6.226562 14.710938 6.257812 14.519531 Z M 10.4375 13.886719 C 9.238281 13.613281 8.179688 13.015625 7.417969 12.207031 C 8.164062 11.414062 9.207031 10.808594 10.4375 10.527344 L 10.757812 10.453125 L 10.757812 4.964844 L 13.242188 4.964844 L 13.242188 10.453125 L 13.5625 10.527344 C 14.761719 10.800781 15.816406 11.394531 16.582031 12.207031 C 15.816406 13.019531 14.761719 13.613281 13.5625 13.886719 L 13.242188 13.960938 L 13.242188 19.4375 C 13.152344 19.441406 13.0625 19.449219 12.972656 19.449219 L 11.027344 19.449219 C 10.9375 19.449219 10.847656 19.441406 10.757812 19.4375 L 10.757812 13.960938 Z M 15.722656 5.675781 C 17.03125 6.578125 17.792969 7.894531 17.792969 9.308594 C 17.792969 9.503906 17.773438 9.699219 17.746094 9.894531 C 17.144531 9.386719 16.46875 8.964844 15.722656 8.636719 Z M 14.070312 0.828125 L 14.898438 0.828125 L 14.898438 9.191406 L 15.15625 9.296875 C 16.046875 9.65625 16.832031 10.152344 17.496094 10.78125 C 17.382812 11.035156 17.226562 11.308594 17.085938 11.535156 C 16.292969 10.730469 15.246094 10.128906 14.070312 9.800781 Z M 13.242188 3.308594 L 13.242188 4.136719 L 10.757812 4.136719 L 10.757812 3.308594 Z M 6.253906 9.898438 C 6.222656 9.703125 6.207031 9.507812 6.207031 9.308594 C 6.207031 7.894531 6.96875 6.578125 8.277344 5.675781 L 8.277344 8.636719 C 7.523438 8.96875 6.84375 9.398438 6.253906 9.898438 Z M 4.933594 11.335938 C 4.679688 10.683594 4.550781 10.003906 4.550781 9.308594 C 4.550781 7.015625 5.996094 4.894531 8.277344 3.757812 L 8.277344 4.699219 C 6.457031 5.742188 5.378906 7.449219 5.378906 9.308594 C 5.378906 9.730469 5.4375 10.152344 5.550781 10.566406 C 5.480469 10.644531 5.414062 10.726562 5.347656 10.808594 C 5.316406 10.839844 5.289062 10.875 5.261719 10.90625 C 5.164062 11.023438 5.074219 11.144531 4.988281 11.265625 C 4.980469 11.277344 4.964844 11.292969 4.957031 11.308594 C 4.949219 11.316406 4.941406 11.328125 4.933594 11.335938 Z M 9.929688 23.171875 L 9.101562 23.171875 L 9.101562 21.875 C 9.363281 21.910156 9.628906 21.929688 9.902344 21.929688 L 9.929688 21.929688 Z M 14.898438 21.867188 L 14.898438 23.171875 L 14.070312 23.171875 L 14.070312 21.929688 L 14.085938 21.929688 C 14.226562 21.929688 14.363281 21.925781 14.503906 21.914062 C 14.566406 21.910156 14.625 21.898438 14.683594 21.894531 C 14.753906 21.886719 14.828125 21.878906 14.898438 21.867188 Z M 16.792969 20.203125 C 16.324219 20.558594 15.777344 20.816406 15.199219 20.964844 C 15.035156 21.003906 14.867188 21.035156 14.699219 21.058594 C 14.664062 21.0625 14.628906 21.066406 14.59375 21.070312 C 14.425781 21.089844 14.253906 21.101562 14.085938 21.101562 L 9.902344 21.101562 C 9.722656 21.101562 9.539062 21.09375 9.359375 21.070312 C 9.351562 21.070312 9.339844 21.070312 9.332031 21.066406 C 9.148438 21.046875 8.96875 21.011719 8.789062 20.96875 L 8.683594 20.941406 C 8.21875 20.816406 7.792969 20.621094 7.414062 20.355469 C 5.648438 19.109375 4.550781 17.097656 4.550781 15.101562 C 4.550781 12.625 6.238281 10.34375 8.84375 9.296875 L 9.101562 9.191406 L 9.101562 0.828125 L 9.929688 0.828125 L 9.929688 9.800781 C 8.710938 10.140625 7.664062 10.765625 6.878906 11.574219 L 6.863281 11.550781 L 6.542969 11.945312 C 6.503906 11.992188 6.472656 12.042969 6.433594 12.089844 C 6.394531 12.140625 6.359375 12.191406 6.324219 12.242188 C 6.300781 12.269531 6.277344 12.300781 6.257812 12.328125 C 6.222656 12.378906 6.195312 12.429688 6.164062 12.480469 C 6.132812 12.523438 6.105469 12.570312 6.078125 12.617188 C 6.058594 12.648438 6.039062 12.679688 6.019531 12.710938 L 5.988281 12.769531 C 5.925781 12.878906 5.871094 12.992188 5.8125 13.125 L 5.792969 13.160156 C 5.78125 13.195312 5.769531 13.230469 5.753906 13.265625 C 5.722656 13.339844 5.691406 13.417969 5.664062 13.5 C 5.652344 13.535156 5.636719 13.570312 5.625 13.605469 L 5.546875 13.84375 L 5.550781 13.851562 C 5.441406 14.257812 5.378906 14.675781 5.378906 15.101562 C 5.378906 16.929688 6.464844 18.550781 8.277344 19.527344 L 8.277344 19.535156 L 8.488281 19.640625 C 8.777344 19.785156 9.082031 19.914062 9.402344 20.023438 C 9.535156 20.070312 9.671875 20.105469 9.816406 20.140625 C 9.835938 20.144531 9.855469 20.148438 9.878906 20.152344 C 10.007812 20.179688 10.136719 20.207031 10.273438 20.222656 C 10.277344 20.222656 10.285156 20.226562 10.289062 20.226562 L 10.757812 20.289062 L 10.757812 20.265625 C 10.847656 20.269531 10.9375 20.277344 11.027344 20.277344 L 12.972656 20.277344 C 13.0625 20.277344 13.152344 20.269531 13.242188 20.265625 L 13.242188 20.289062 L 13.707031 20.226562 C 13.714844 20.226562 13.71875 20.222656 13.726562 20.222656 C 13.859375 20.203125 13.992188 20.179688 14.121094 20.152344 C 14.140625 20.148438 14.164062 20.144531 14.183594 20.140625 C 14.328125 20.105469 14.464844 20.066406 14.597656 20.023438 C 14.917969 19.914062 15.222656 19.785156 15.507812 19.640625 L 15.722656 19.535156 L 15.722656 19.527344 C 17.535156 18.550781 18.621094 16.929688 18.621094 15.101562 C 18.621094 14.671875 18.558594 14.234375 18.4375 13.808594 C 18.660156 13.570312 18.863281 13.316406 19.046875 13.050781 C 19.3125 13.714844 19.449219 14.402344 19.449219 15.101562 C 19.449219 17.03125 18.457031 18.9375 16.792969 20.203125 Z M 16.792969 20.203125"/>
</svg>

<svg xmlns="http://www.w3.org/2000/svg" width="32" height="32" viewBox="0 0 24 24">
    <path d="M20.277 9.309c0-2.73-1.78-5.239-4.554-6.457V0h-2.48v2.484h-2.485V0h-2.48v2.852C5.503 4.07 3.722 6.578 3.722 9.309c0 1.007.238 1.976.695 2.898a6.463 6.463 0 0 0-.695 2.895c0 2.257 1.234 4.53 3.215 5.93.406.284.855.503 1.34.655V24h2.48v-2.07h2.484V24h2.48v-2.328a5.09 5.09 0 0 0 1.571-.813c1.867-1.422 2.984-3.574 2.984-5.757 0-.997-.238-1.965-.703-2.887a6.402 6.402 0 0 0 .703-2.906zm-2.484 5.793c0 1.406-.754 2.636-2.07 3.472V15.79c.789-.316 1.46-.797 2.02-1.3.03.202.05.41.05.613zm1.656-5.793c0 .882-.215 1.738-.625 2.546l-.02.008-.07.13a6.17 6.17 0 0 1-.386.609 9.189 9.189 0 0 1-.743.878l-.109.11c-.598.598-1.379 1.2-2.32 1.52l-.278.097v3.809c-.007.004-.015.004-.023.007-.18.082-.363.153-.547.215-.082.032-.172.055-.258.078v-4.703c1.313-.363 2.461-1.078 3.293-2.043l.024-.008.074-.093c.406-.5.715-1.059.914-1.664v.004c.012-.028.016-.055.023-.082l.055-.16-.004-.008c.11-.41.172-.829.172-1.25 0-1.86-1.078-3.567-2.898-4.61v-.941c2.28 1.137 3.726 3.258 3.726 5.55zm-9.777 9.93a5.873 5.873 0 0 1-.547-.216c-.008-.003-.016-.003-.023-.007v-3.793l-.258-.106A7.383 7.383 0 0 1 6.5 13.63a3.09 3.09 0 0 1 .137-.309c.023-.043.043-.086.062-.125.063-.113.125-.222.2-.332.792.813 1.847 1.422 3.03 1.75v4.703c-.085-.023-.175-.046-.257-.078zm-3.414-4.72a8.21 8.21 0 0 0 2.02 1.258v2.797c-1.317-.836-2.071-2.066-2.071-3.472 0-.196.02-.391.05-.582zm4.18-.632c-1.2-.274-2.258-.871-3.02-1.68.746-.793 1.789-1.398 3.02-1.68l.32-.074V4.965h2.484v5.488l.32.074c1.2.274 2.254.868 3.02 1.68-.766.813-1.82 1.406-3.02 1.68l-.32.074v5.476c-.09.004-.18.012-.27.012h-1.945c-.09 0-.18-.008-.27-.012v-5.476zm5.285-8.211c1.308.902 2.07 2.219 2.07 3.633 0 .195-.02.39-.047.586a8.308 8.308 0 0 0-2.023-1.258zM14.07.828h.828v8.363l.258.106c.89.36 1.676.855 2.34 1.484-.113.254-.27.528-.41.754-.793-.805-1.84-1.406-3.016-1.734zm-.828 2.48v.829h-2.484v-.828zm-6.988 6.59a3.715 3.715 0 0 1-.047-.59c0-1.413.762-2.73 2.07-3.632v2.96a8.306 8.306 0 0 0-2.023 1.262zm-1.32 1.438a5.56 5.56 0 0 1-.383-2.027c0-2.293 1.445-4.414 3.726-5.551v.941C6.457 5.742 5.38 7.45 5.38 9.31c0 .421.059.843.172 1.257-.07.079-.137.16-.203.243-.032.03-.059.066-.086.097a5.816 5.816 0 0 0-.274.36c-.008.011-.023.027-.031.043-.008.007-.016.02-.023.027zM9.93 23.172h-.828v-1.297c.261.035.527.055.8.055h.028zm4.968-1.305v1.305h-.828V21.93h.016c.14 0 .277-.004.418-.016.062-.004.121-.016.18-.02.07-.007.144-.015.214-.027zm1.895-1.664a4.49 4.49 0 0 1-1.594.762c-.164.039-.332.07-.5.094l-.105.011a4.43 4.43 0 0 1-.508.032H9.902c-.18 0-.363-.008-.543-.032-.007 0-.02 0-.027-.004a4.274 4.274 0 0 1-.543-.097l-.105-.028a4.011 4.011 0 0 1-1.27-.586c-1.766-1.246-2.863-3.257-2.863-5.253 0-2.477 1.687-4.758 4.293-5.805l.258-.106V.828h.828v8.973c-1.22.34-2.266.965-3.051 1.773l-.016-.023-.32.394c-.04.047-.07.098-.11.145-.038.05-.074.101-.109.152a1.272 1.272 0 0 0-.066.086c-.035.05-.063.102-.094.152-.031.043-.059.09-.086.137l-.058.094-.032.059c-.062.109-.117.222-.176.355l-.019.035c-.012.035-.023.07-.04.106a3.26 3.26 0 0 0-.089.234l-.039.105-.078.239.004.008c-.11.406-.172.824-.172 1.25 0 1.828 1.086 3.449 2.898 4.425v.008l.211.106c.29.144.594.273.914.382.133.047.27.082.414.118l.063.011c.129.028.258.055.394.07.004 0 .012.005.016.005l.469.062v-.023c.09.004.18.011.27.011h1.945c.09 0 .18-.007.27-.011v.023l.464-.062c.008 0 .012-.004.02-.004.132-.02.265-.043.394-.07.02-.005.043-.008.063-.012.144-.036.28-.075.414-.118.32-.109.625-.238.91-.382l.215-.106v-.008c1.812-.976 2.898-2.597 2.898-4.425 0-.43-.062-.868-.183-1.293.222-.239.425-.493.609-.758.265.664.402 1.351.402 2.05 0 1.93-.992 3.836-2.656 5.102zm0 0"/>
</svg>
